X:1
T:Au Privave
C:Charlie Parker
Z:All Rights Reserved
L:1/8
Q:1/4=150
M:4/4
K:F
V:1 treble nm="Voice" snm="Voice"
%%MIDI program 0
V:1
|:"Fmaj7" FEFC z2 A^G | A"Gm7"CzE- E"C7"GFE | G"Fmaj7"FAB A"Gm7"FG_E |"Cm7" z d3"F+7" z _d2F | %4
 =B2>"^Bb7(b9)"f2zB _B2 |"Bbm7"z2>_A2- A"Eb7"FGF | c2"Fmaj7"zA"Gm7" B2zG |"Am7" c2 c2"D7"zA Bc | %8
 A"Gm7"GFE F2zc | B2"Gm7"zf-"C7" fcef |"Fmaj7"z2>c2 c2"^D7(b9)"zA | B"Gm7"AGF"C7" A A3 :| %12

